logos/storyblocks.svg

<?xml version="1.0" encoding="UTF-8"?>
<svg width="512px" height="110px" viewBox="0 0 512 110" version="1.1" xmlns="http://www.w3.org/2000/svg" preserveAspectRatio="xMidYMid">
    <title>Storyblocks</title>
    <g>
        <path d="M131.7986,66.9236412 C131.7986,63.5091697 133.847282,61.1190397 136.920307,61.1190397 C139.651884,60.9483161 142.042014,63.1677226 142.212738,65.8992998 C142.212738,66.9236412 142.042014,67.9479827 141.529843,68.8016005 C143.74925,70.1673891 146.480827,71.021007 149.212404,70.8502834 C154.504835,70.8502834 157.919306,68.4601534 157.919306,64.3627876 C157.919306,60.4361454 153.821941,58.5581861 149.041681,56.8509503 C139.993331,53.6072024 133.676559,50.7049016 133.676559,41.8272758 C133.676559,34.1447149 139.993331,28.1693898 149.724575,28.1693898 C158.772924,28.1693898 165.772591,32.7789263 165.772591,38.5835278 C165.772591,41.9979993 163.553184,44.0466822 160.821607,44.0466822 C158.09003,44.2174058 155.6999,42.1687229 155.529176,39.2664221 L155.529176,39.0956986 C155.529176,38.2420807 155.6999,37.5591864 156.041347,36.8762921 C153.992664,35.8519507 151.773258,35.3397799 149.553851,35.3397799 C144.773591,35.3397799 141.87129,37.72991 141.87129,41.315105 C141.87129,45.2417472 145.968656,47.1197066 150.748916,48.8269423 C159.455819,51.8999667 165.943314,54.972991 165.943314,63.8506169 C165.943314,73.0696899 158.772924,78.1913971 148.870957,78.1913971 C139.651884,78.1913971 131.7986,72.8989663 131.7986,66.9236412 L131.7986,66.9236412 Z M176.869623,73.5818606 C176.016005,72.0453484 175.674558,70.3381127 175.845282,68.4601534 L175.845282,51.8999667 L169.52851,51.8999667 L169.52851,45.0710237 L175.845282,45.0710237 L175.845282,38.2420807 L183.86929,34.8276092 L183.86929,45.0710237 L193.771257,45.0710237 L193.771257,51.8999667 L184.040013,51.8999667 L184.040013,66.9236412 C184.040013,67.7772591 184.210737,68.630877 184.552184,69.3137713 C185.235078,70.3381127 186.600867,71.021007 187.966656,70.8502834 C190.186062,70.6795599 192.405468,70.1673891 194.283428,69.1430477 L193.600534,75.9719907 C191.210403,77.1670557 188.478826,77.84995 185.917973,77.84995 C181.820607,77.84995 178.576859,76.654885 176.869623,73.5818606 Z M197.868623,61.2897633 C197.868623,52.4121374 204.526842,44.558853 215.111704,44.558853 C225.867289,44.558853 232.354785,52.2414138 232.354785,61.2897633 C232.354785,70.1673891 225.696566,78.0206736 215.111704,78.0206736 C204.356119,77.84995 197.868623,70.1673891 197.868623,61.2897633 L197.868623,61.2897633 Z M223.98933,61.2897633 C223.98933,55.4851617 220.233411,51.3877959 215.111704,51.3877959 C209.819273,51.3877959 206.234078,55.4851617 206.234078,61.2897633 C206.234078,67.0943648 209.989997,71.1917306 215.111704,71.1917306 C220.233411,71.1917306 223.98933,67.0943648 223.98933,61.2897633 Z M264.962988,49.8512838 C264.962988,52.582861 262.914305,54.8022674 260.182728,54.8022674 C258.134045,54.8022674 256.256085,53.777926 255.402467,51.8999667 C252.67089,53.0950317 250.451484,55.3144381 248.914972,58.0460153 L248.914972,70.6795599 L254.54885,70.6795599 L254.54885,77.3377793 L236.110704,77.3377793 L236.110704,70.6795599 L240.890964,70.6795599 L240.890964,51.8999667 L236.110704,51.8999667 L236.110704,45.0710237 L248.573525,45.0710237 L248.573525,52.4121374 C251.305102,48.144048 254.719573,44.558853 258.816939,44.558853 C263.085028,44.558853 264.962988,47.1197066 264.962988,49.8512838 L264.962988,49.8512838 Z M276.230744,91.8492831 C271.962654,91.8492831 269.231077,89.2884295 269.231077,86.7275759 C269.060353,84.678893 270.596866,82.8009336 272.816272,82.6302101 L273.328443,82.6302101 C274.864955,82.6302101 276.401467,83.4838279 276.913638,85.0203401 C277.937979,84.678893 278.962321,83.9959987 279.474491,83.1423808 C279.986662,82.2887629 280.498833,81.6058686 281.011004,80.5815272 L283.401134,75.4598199 L271.962654,51.7292431 L268.036012,51.7292431 L268.036012,44.9003001 L284.766922,44.9003001 L284.766922,51.2170724 L279.986662,51.2170724 L287.498499,68.1187062 L295.010337,51.2170724 L290.059353,51.2170724 L290.059353,44.9003001 L306.61954,44.9003001 L306.61954,51.7292431 L302.692898,51.7292431 L287.498499,83.6545515 C286.815605,85.0203401 285.961987,86.3861287 284.937646,87.5811937 C282.718239,90.3127709 279.645215,91.8492831 276.230744,91.8492831 L276.230744,91.8492831 Z M318.57019,74.2647549 L316.862954,77.5085028 L311.3998,77.5085028 L311.3998,30.3887963 L306.448816,30.3887963 L306.448816,23.5598533 L319.423808,23.5598533 L319.423808,48.6562187 C321.984662,46.0953651 325.399133,44.558853 328.984328,44.558853 C337.520507,44.558853 344.008003,51.3877959 344.008003,61.1190397 C344.008003,70.5088363 337.17906,77.84995 328.472157,77.84995 C324.886962,77.84995 321.301767,76.654885 318.57019,74.2647549 L318.57019,74.2647549 Z M335.642548,61.1190397 C335.642548,54.972991 331.886629,51.3877959 327.106369,51.3877959 C324.204068,51.3877959 321.472491,52.582861 319.423808,54.6315438 L319.423808,68.4601534 C321.643214,69.9966656 324.374792,70.8502834 327.106369,71.021007 C331.715905,71.021007 335.642548,67.6065355 335.642548,61.1190397 Z M347.251751,70.6795599 L352.202734,70.6795599 L352.202734,30.3887963 L347.251751,30.3887963 L347.251751,23.5598533 L360.397466,23.5598533 L360.397466,70.6795599 L365.177726,70.6795599 L365.177726,77.3377793 L347.251751,77.3377793 L347.251751,70.6795599 L347.251751,70.6795599 Z M368.592197,61.2897633 C368.592197,52.4121374 375.250417,44.558853 385.835278,44.558853 C396.590864,44.558853 403.078359,52.2414138 403.078359,61.2897633 C403.078359,70.1673891 396.42014,78.0206736 385.835278,78.0206736 C375.079693,77.84995 368.592197,70.1673891 368.592197,61.2897633 L368.592197,61.2897633 Z M394.712904,61.2897633 C394.712904,55.4851617 390.956986,51.3877959 385.835278,51.3877959 C380.542848,51.3877959 376.957653,55.4851617 376.957653,61.2897633 C376.957653,67.0943648 380.713571,71.1917306 385.835278,71.1917306 C390.956986,71.1917306 394.712904,67.0943648 394.712904,61.2897633 Z M407.517172,60.9483161 C407.517172,51.8999667 414.858286,44.558853 423.906636,44.558853 C432.784261,44.558853 438.588863,50.3634545 438.588863,55.3144381 C438.759587,58.0460153 436.710904,60.606869 433.979326,60.7775925 L433.467156,60.7775925 C430.735579,60.7775925 428.686896,58.5581861 428.516172,55.9973324 C428.516172,54.972991 428.857619,54.1193731 429.540514,53.2657553 C429.028343,52.4121374 426.97966,51.0463488 423.735912,51.0463488 C419.979993,51.0463488 415.54118,54.1193731 415.54118,61.1190397 C415.54118,67.2650884 420.32144,71.1917306 425.955318,71.1917306 C429.881961,71.1917306 433.296432,70.1673891 437.393798,67.7772591 L436.710904,74.9476492 C433.296432,76.9963321 429.199066,78.0206736 425.272424,77.84995 C415.199733,77.84995 407.517172,71.3624542 407.517172,60.9483161 L407.517172,60.9483161 Z M442.856952,70.6795599 L447.637212,70.6795599 L447.637212,30.3887963 L442.856952,30.3887963 L442.856952,23.5598533 L455.66122,23.5598533 L455.66122,59.5825275 L465.051017,51.5585195 L460.612204,51.5585195 L460.612204,45.2417472 L479.733244,45.2417472 L479.733244,52.0706902 L473.757919,52.0706902 L466.246082,58.3874625 L474.440814,70.6795599 L479.733244,70.6795599 L479.733244,77.5085028 L469.660554,77.5085028 L460.44148,62.996999 L455.831944,66.9236412 L455.831944,71.021007 L459.92931,71.021007 L459.92931,77.5085028 L443.027676,77.5085028 L443.027676,70.6795599 L442.856952,70.6795599 Z M507.21974,56.6802267 C504.658886,56.6802267 502.780927,55.1437146 502.780927,52.7535845 C502.780927,52.2414138 502.780927,51.7292431 502.951651,51.3877959 C501.415138,50.8756252 499.878626,50.5341781 498.342114,50.5341781 C494.756919,50.5341781 492.87896,52.0706902 492.87896,53.777926 C492.87896,55.6558853 494.756919,56.5095032 499.707903,57.8752918 C507.390463,59.9239747 512,61.801934 512,67.6065355 C512,74.4354785 505.683228,78.0206736 498.342114,78.0206736 C493.39113,78.0206736 488.0987,76.3134378 485.879293,74.0940313 C484.684228,73.0696899 484.001334,71.3624542 484.001334,69.825942 C484.001334,67.4358119 485.879293,65.5578526 488.0987,65.5578526 L488.269423,65.5578526 C490.48883,65.387129 492.537513,67.2650884 492.537513,69.4844948 L492.537513,69.825942 C492.537513,70.3381127 492.537513,70.6795599 492.366789,71.1917306 C494.244748,71.8746249 496.122708,72.216072 498.17139,72.216072 C501.415138,72.216072 504.146716,71.1917306 504.146716,68.8016005 C504.146716,67.2650884 502.780927,66.2407469 497.829943,64.8749583 C488.952317,62.4848283 485.196399,60.4361454 485.196399,54.972991 C485.196399,50.0220073 489.293765,44.7295765 498.342114,44.7295765 C502.268756,44.7295765 507.049016,46.2660887 509.268423,48.3147716 C510.463488,49.339113 510.975659,50.8756252 510.975659,52.4121374 C511.317106,54.8022674 509.60987,56.6802267 507.21974,56.6802267 L507.21974,56.6802267 Z" fill="#000000"></path>
        <g transform="translate(0.000000, 0.000000)">
            <circle fill="#FFE121" cx="54.6315438" cy="54.6315438" r="54.6315438"></circle>
            <path d="M52.2414138,25.9499833 L52.2414138,62.8262754 C41.9979993,62.8262754 33.8032678,54.6315438 33.8032678,44.3881294 C33.8032678,34.1447149 41.9979993,25.9499833 52.2414138,25.9499833 Z M57.0216739,83.3131044 L57.0216739,46.4368123 C67.2650884,46.4368123 75.4598199,54.6315438 75.4598199,64.8749583 C75.4598199,74.9531564 67.5273027,83.0482252 57.5156983,83.3067347 L57.0216739,83.3131044 Z M65.7285762,25.9499833 C70.5088363,25.9499833 74.4354785,29.8766255 74.4354785,34.6568856 C74.4354785,39.4371457 70.5088363,43.3637879 65.7285762,43.3637879 C60.9483161,43.3637879 57.0216739,39.4371457 57.0216739,34.6568856 C57.0216739,29.8766255 60.9483161,25.9499833 65.7285762,25.9499833 Z M43.5345115,65.8992998 C48.3147716,65.8992998 52.2414138,69.825942 52.2414138,74.6062021 C52.2414138,79.3864622 48.3147716,83.3131044 43.5345115,83.3131044 C38.7542514,83.3131044 34.8276092,79.3864622 34.8276092,74.6062021 C34.8276092,69.825942 38.7542514,65.8992998 43.5345115,65.8992998 Z" fill="#000000"></path>
        </g>
    </g>
</svg>

<svg preserveAspectRatio="xMidYMid" viewBox="0 0 512 110" xmlns="http://www.w3.org/2000/svg">
  <path d="M131.799 66.924c0-3.415 2.048-5.805 5.121-5.805 2.732-.17 5.122 2.049 5.293 4.78 0 1.025-.171 2.049-.683 2.903 2.22 1.365 4.95 2.219 7.682 2.048 5.293 0 8.707-2.39 8.707-6.487 0-3.927-4.097-5.805-8.877-7.512-9.049-3.244-15.365-6.146-15.365-15.024 0-7.682 6.316-13.658 16.048-13.658 9.048 0 16.048 4.61 16.048 10.415 0 3.414-2.22 5.463-4.951 5.463-2.732.17-5.122-1.878-5.293-4.78v-.171c0-.854.17-1.537.512-2.22a14.493 14.493 0 0 0-6.487-1.536c-4.78 0-7.683 2.39-7.683 5.975 0 3.927 4.098 5.805 8.878 7.512 8.707 3.073 15.194 6.146 15.194 15.024 0 9.219-7.17 14.34-17.072 14.34-9.22 0-17.072-5.292-17.072-11.267Zm45.07 6.658c-.853-1.537-1.194-3.244-1.024-5.122V51.9h-6.316v-6.829h6.316v-6.829l8.024-3.414V45.07h9.902v6.83h-9.731v15.024c0 .853.17 1.707.512 2.39.683 1.024 2.049 1.707 3.415 1.536 2.22-.17 4.438-.683 6.316-1.707l-.682 6.829c-2.39 1.195-5.122 1.878-7.683 1.878-4.097 0-7.341-1.195-9.048-4.268Zm21-12.292c0-8.878 6.658-16.731 17.243-16.731 10.755 0 17.243 7.682 17.243 16.73 0 8.878-6.658 16.732-17.243 16.732-10.756-.171-17.243-7.854-17.243-16.731Zm26.12 0c0-5.805-3.756-9.902-8.877-9.902-5.293 0-8.878 4.097-8.878 9.902 0 5.804 3.756 9.902 8.878 9.902 5.121 0 8.877-4.098 8.877-9.902Zm40.974-11.439c0 2.732-2.049 4.951-4.78 4.951-2.049 0-3.927-1.024-4.78-2.902-2.732 1.195-4.952 3.414-6.488 6.146V70.68h5.634v6.658H236.11V70.68h4.78V51.9h-4.78v-6.829h12.463v7.341c2.731-4.268 6.146-7.853 10.243-7.853 4.268 0 6.146 2.56 6.146 5.292Zm11.268 41.998c-4.268 0-7-2.56-7-5.121-.17-2.05 1.366-3.927 3.585-4.098h.512c1.537 0 3.073.854 3.586 2.39 1.024-.341 2.048-1.024 2.56-1.878.513-.853 1.025-1.536 1.537-2.56l2.39-5.122-11.438-23.73h-3.927V44.9h16.73v6.317h-4.78l7.512 16.902 7.512-16.902h-4.95V44.9h16.56v6.83h-3.927l-15.195 31.925c-.682 1.365-1.536 2.731-2.56 3.926-2.22 2.732-5.293 4.268-8.707 4.268Zm42.34-17.584-1.708 3.244H311.4v-47.12h-4.951v-6.83h12.975v25.097c2.56-2.56 5.975-4.097 9.56-4.097 8.537 0 15.024 6.829 15.024 16.56 0 9.39-6.829 16.731-15.536 16.731-3.585 0-7.17-1.195-9.902-3.585Zm17.072-13.146c0-6.146-3.756-9.731-8.537-9.731-2.902 0-5.634 1.195-7.682 3.244V68.46c2.22 1.537 4.95 2.39 7.682 2.561 4.61 0 8.537-3.414 8.537-9.902Zm11.609 9.56h4.95V30.39h-4.95v-6.83h13.145v47.12h4.78v6.659h-17.925V70.68Zm21.34-9.39c0-8.877 6.658-16.73 17.243-16.73 10.756 0 17.243 7.682 17.243 16.73 0 8.878-6.658 16.732-17.243 16.732-10.755-.171-17.243-7.854-17.243-16.731Zm26.12 0c0-5.804-3.755-9.901-8.877-9.901-5.292 0-8.877 4.097-8.877 9.902 0 5.804 3.756 9.902 8.877 9.902 5.122 0 8.878-4.098 8.878-9.902Zm12.805-.34c0-9.049 7.341-16.39 16.39-16.39 8.877 0 14.682 5.804 14.682 10.755.17 2.732-1.878 5.293-4.61 5.464h-.512c-2.731 0-4.78-2.22-4.95-4.78 0-1.025.34-1.879 1.024-2.732-.513-.854-2.561-2.22-5.805-2.22-3.756 0-8.195 3.073-8.195 10.073 0 6.146 4.78 10.073 10.414 10.073 3.927 0 7.341-1.025 11.439-3.415l-.683 7.17c-3.415 2.05-7.512 3.074-11.439 2.903-10.072 0-17.755-6.488-17.755-16.902Zm35.34 9.73h4.78V30.39h-4.78v-6.83h12.804v36.024l9.39-8.024h-4.439v-6.317h19.121v6.829h-5.975l-7.512 6.316 8.195 12.293h5.292v6.829h-10.072l-9.22-14.512-4.61 3.927v4.097h4.098v6.488h-16.901v-6.83h-.171ZM507.22 56.68c-2.561 0-4.44-1.536-4.44-3.926 0-.513 0-1.025.172-1.366-1.537-.512-3.073-.854-4.61-.854-3.585 0-5.463 1.537-5.463 3.244 0 1.878 1.878 2.732 6.829 4.097C507.39 59.924 512 61.802 512 67.607c0 6.828-6.317 10.414-13.658 10.414-4.95 0-10.243-1.708-12.463-3.927-1.195-1.024-1.878-2.732-1.878-4.268 0-2.39 1.878-4.268 4.098-4.268h.17c2.22-.17 4.269 1.707 4.269 3.926v.342c0 .512 0 .854-.171 1.366a16.624 16.624 0 0 0 5.804 1.024c3.244 0 5.976-1.024 5.976-3.414 0-1.537-1.366-2.561-6.317-3.927-8.878-2.39-12.634-4.439-12.634-9.902 0-4.951 4.098-10.243 13.146-10.243 3.927 0 8.707 1.536 10.926 3.585 1.195 1.024 1.708 2.56 1.708 4.097.341 2.39-1.366 4.268-3.756 4.268Z"/>
  <circle cx="54.632" cy="54.632" r="54.632" fill="#FFE121"/>
  <path d="M52.241 25.95v36.876a18.361 18.361 0 0 1-18.438-18.438A18.361 18.361 0 0 1 52.241 25.95Zm4.78 57.363V46.437A18.361 18.361 0 0 1 75.46 64.875a18.358 18.358 0 0 1-17.944 18.432l-.494.006ZM65.73 25.95c4.78 0 8.706 3.927 8.706 8.707 0 4.78-3.926 8.707-8.706 8.707-4.78 0-8.707-3.927-8.707-8.707 0-4.78 3.926-8.707 8.707-8.707ZM43.535 65.9c4.78 0 8.706 3.926 8.706 8.706 0 4.78-3.926 8.707-8.706 8.707-4.78 0-8.707-3.927-8.707-8.707 0-4.78 3.926-8.707 8.707-8.707Z"/>
</svg>
